_slides/2023-03-27-eucap-presentation/geometry.svg

<svg xmlns="http://www.w3.org/2000/svg" xmlns:xlink="http://www.w3.org/1999/xlink" width="201.909" height="152.244" version="1.1" viewBox="0 0 151.432 114.183"><defs><g><symbol id="glyph0-0" overflow="visible"><path style="stroke:none"/></symbol><symbol id="glyph0-1" overflow="visible"><path style="stroke:none" d="M 2.21875 -3.65625 L 2.21875 -6.09375 C 2.21875 -6.4375 2.234375 -6.5 2.703125 -6.5 L 3.9375 -6.5 C 4.90625 -6.5 5.25 -5.65625 5.25 -5.125 C 5.25 -4.484375 4.765625 -3.65625 3.65625 -3.65625 Z M 4.5625 -3.5625 C 5.53125 -3.75 6.21875 -4.390625 6.21875 -5.125 C 6.21875 -5.984375 5.296875 -6.8125 4 -6.8125 L 0.359375 -6.8125 L 0.359375 -6.5 L 0.59375 -6.5 C 1.359375 -6.5 1.390625 -6.390625 1.390625 -6.03125 L 1.390625 -0.78125 C 1.390625 -0.421875 1.359375 -0.3125 0.59375 -0.3125 L 0.359375 -0.3125 L 0.359375 0 L 4.265625 0 C 5.59375 0 6.484375 -0.890625 6.484375 -1.828125 C 6.484375 -2.6875 5.671875 -3.4375 4.5625 -3.5625 Z M 3.953125 -0.3125 L 2.703125 -0.3125 C 2.234375 -0.3125 2.21875 -0.375 2.21875 -0.703125 L 2.21875 -3.421875 L 4.09375 -3.421875 C 5.078125 -3.421875 5.5 -2.5 5.5 -1.828125 C 5.5 -1.125 4.96875 -0.3125 3.953125 -0.3125 Z M 3.953125 -0.3125"/></symbol><symbol id="glyph0-2" overflow="visible"><path style="stroke:none" d="M 3.484375 -3.875 L 2.203125 -4.171875 C 1.578125 -4.328125 1.203125 -4.859375 1.203125 -5.4375 C 1.203125 -6.140625 1.734375 -6.75 2.515625 -6.75 C 4.171875 -6.75 4.390625 -5.109375 4.453125 -4.671875 C 4.46875 -4.609375 4.46875 -4.546875 4.578125 -4.546875 C 4.703125 -4.546875 4.703125 -4.59375 4.703125 -4.78125 L 4.703125 -6.78125 C 4.703125 -6.953125 4.703125 -7.03125 4.59375 -7.03125 C 4.53125 -7.03125 4.515625 -7.015625 4.453125 -6.890625 L 4.09375 -6.328125 C 3.796875 -6.625 3.390625 -7.03125 2.5 -7.03125 C 1.390625 -7.03125 0.5625 -6.15625 0.5625 -5.09375 C 0.5625 -4.265625 1.09375 -3.53125 1.859375 -3.265625 C 1.96875 -3.234375 2.484375 -3.109375 3.1875 -2.9375 C 3.453125 -2.875 3.75 -2.796875 4.03125 -2.4375 C 4.234375 -2.171875 4.34375 -1.84375 4.34375 -1.515625 C 4.34375 -0.8125 3.84375 -0.09375 3 -0.09375 C 2.71875 -0.09375 1.953125 -0.140625 1.421875 -0.625 C 0.84375 -1.171875 0.8125 -1.796875 0.8125 -2.15625 C 0.796875 -2.265625 0.71875 -2.265625 0.6875 -2.265625 C 0.5625 -2.265625 0.5625 -2.1875 0.5625 -2.015625 L 0.5625 -0.015625 C 0.5625 0.15625 0.5625 0.21875 0.671875 0.21875 C 0.734375 0.21875 0.75 0.203125 0.8125 0.09375 C 0.8125 0.078125 0.84375 0.046875 1.171875 -0.484375 C 1.484375 -0.140625 2.125 0.21875 3.015625 0.21875 C 4.171875 0.21875 4.96875 -0.75 4.96875 -1.859375 C 4.96875 -2.84375 4.3125 -3.671875 3.484375 -3.875 Z M 3.484375 -3.875"/></symbol><symbol id="glyph0-3" overflow="visible"><path style="stroke:none" d="M 5.796875 -2.296875 C 5.796875 -0.890625 4.828125 -0.09375 3.890625 -0.09375 C 3.421875 -0.09375 2.25 -0.34375 2.25 -2.234375 L 2.25 -6.03125 C 2.25 -6.390625 2.265625 -6.5 3.03125 -6.5 L 3.265625 -6.5 L 3.265625 -6.8125 C 2.921875 -6.78125 2.1875 -6.78125 1.796875 -6.78125 C 1.421875 -6.78125 0.671875 -6.78125 0.328125 -6.8125 L 0.328125 -6.5 L 0.5625 -6.5 C 1.328125 -6.5 1.359375 -6.390625 1.359375 -6.03125 L 1.359375 -2.265625 C 1.359375 -0.875 2.515625 0.21875 3.875 0.21875 C 5.015625 0.21875 5.90625 -0.703125 6.078125 -1.84375 C 6.109375 -2.046875 6.109375 -2.140625 6.109375 -2.53125 L 6.109375 -5.71875 C 6.109375 -6.046875 6.109375 -6.5 7.140625 -6.5 L 7.140625 -6.8125 C 6.78125 -6.796875 6.296875 -6.78125 5.96875 -6.78125 C 5.609375 -6.78125 5.140625 -6.796875 4.78125 -6.8125 L 4.78125 -6.5 C 5.796875 -6.5 5.796875 -6.03125 5.796875 -5.765625 Z M 5.796875 -2.296875"/></symbol><symbol id="glyph0-4" overflow="visible"><path style="stroke:none" d="M 1.359375 -0.78125 C 1.359375 -0.421875 1.328125 -0.3125 0.5625 -0.3125 L 0.328125 -0.3125 L 0.328125 0 L 6.078125 0 L 6.5 -2.578125 L 6.25 -2.578125 C 6 -1.03125 5.765625 -0.3125 4.0625 -0.3125 L 2.734375 -0.3125 C 2.265625 -0.3125 2.25 -0.375 2.25 -0.703125 L 2.25 -3.375 L 3.140625 -3.375 C 4.109375 -3.375 4.21875 -3.046875 4.21875 -2.203125 L 4.46875 -2.203125 L 4.46875 -4.84375 L 4.21875 -4.84375 C 4.21875 -3.984375 4.109375 -3.671875 3.140625 -3.671875 L 2.25 -3.671875 L 2.25 -6.078125 C 2.25 -6.40625 2.265625 -6.46875 2.734375 -6.46875 L 4.015625 -6.46875 C 5.546875 -6.46875 5.8125 -5.921875 5.96875 -4.53125 L 6.21875 -4.53125 L 5.9375 -6.78125 L 0.328125 -6.78125 L 0.328125 -6.46875 L 0.5625 -6.46875 C 1.328125 -6.46875 1.359375 -6.359375 1.359375 -6 Z M 1.359375 -0.78125"/></symbol></g><clipPath id="clip1"><path d="M 0 112 L 151.433594 112 L 151.433594 114.183594 L 0 114.183594 Z M 0 112"/></clipPath><clipPath id="clip2"><path d="M 34 88 L 63 88 L 63 114.183594 L 34 114.183594 Z M 34 88"/></clipPath></defs><g id="surface1"><path style="fill-rule:nonzero;fill:#d1d1d1;fill-opacity:1;stroke-width:.3985;stroke-linecap:butt;stroke-linejoin:miter;stroke:#000;stroke-opacity:1;stroke-miterlimit:10" d="M -0.0004375 -0.0009375 L -0.0004375 56.694375 L 28.347219 56.694375 L 28.347219 -0.0009375 Z M -0.0004375 -0.0009375" transform="matrix(1,0,0,-1,9.102,113.585)"/><path style="fill-rule:nonzero;fill:#d1d1d1;fill-opacity:1;stroke-width:.3985;stroke-linecap:butt;stroke-linejoin:miter;stroke:#000;stroke-opacity:1;stroke-miterlimit:10" d="M 104.882375 -0.0009375 L 104.882375 113.385781 L 133.230031 113.385781 L 133.230031 -0.0009375 Z M 104.882375 -0.0009375" transform="matrix(1,0,0,-1,9.102,113.585)"/><path style="fill-rule:nonzero;fill:#d1d1d1;fill-opacity:1;stroke-width:.3985;stroke-linecap:butt;stroke-linejoin:miter;stroke:#000;stroke-opacity:1;stroke-miterlimit:10" d="M 51.023 -0.0009375 L 51.023 28.346719 L 79.370656 28.346719 L 79.370656 -0.0009375 Z M 51.023 -0.0009375" transform="matrix(1,0,0,-1,9.102,113.585)"/><g clip-path="url(#clip1)" clip-rule="nonzero"><path style="fill:none;stroke-width:1.19553;stroke-linecap:butt;stroke-linejoin:miter;stroke:#000;stroke-opacity:1;stroke-miterlimit:10" d="M -8.504344 -0.0009375 L 141.733937 -0.0009375" transform="matrix(1,0,0,-1,9.102,113.585)"/></g><path style="fill:none;stroke-width:.79701;stroke-linecap:butt;stroke-linejoin:miter;stroke:#000;stroke-opacity:1;stroke-miterlimit:10" d="M 16.99175 65.198281 C 16.99175 66.752969 15.730031 68.014687 14.171437 68.014687 C 12.61675 68.014687 11.355031 66.752969 11.355031 65.198281 C 11.355031 63.639687 12.61675 62.377969 14.171437 62.377969 C 15.730031 62.377969 16.99175 63.639687 16.99175 65.198281 Z M 16.99175 65.198281" transform="matrix(1,0,0,-1,9.102,113.585)"/><g style="fill:#000;fill-opacity:1"><use x="16.979" y="41.652" xlink:href="#glyph0-1"/><use x="24.036" y="41.652" xlink:href="#glyph0-2"/></g><g clip-path="url(#clip2)" clip-rule="nonzero"><path style="fill:none;stroke-width:.79701;stroke-linecap:butt;stroke-linejoin:miter;stroke:#000;stroke-opacity:1;stroke-miterlimit:10" d="M 42.503469 11.338906 C 42.503469 12.893594 41.24175 14.155312 39.687062 14.155312 C 38.128469 14.155312 36.86675 12.893594 36.86675 11.338906 C 36.86675 9.780312 38.128469 8.518594 39.687062 8.518594 C 41.24175 8.518594 42.503469 9.780312 42.503469 11.338906 Z M 42.503469 11.338906" transform="matrix(1,0,0,-1,9.102,113.585)"/></g><g style="fill:#000;fill-opacity:1"><use x="41.661" y="95.51" xlink:href="#glyph0-3"/><use x="49.133" y="95.51" xlink:href="#glyph0-4"/></g><path style="fill:none;stroke-width:.3985;stroke-linecap:butt;stroke-linejoin:miter;stroke:red;stroke-opacity:1;stroke-dasharray:2.98883,2.98883;stroke-miterlimit:10" d="M 16.933156 63.542031 L 28.347219 56.694375 L 38.905812 14.46" transform="matrix(1,0,0,-1,9.102,113.585)"/><path style="fill:none;stroke-width:.3985;stroke-linecap:butt;stroke-linejoin:miter;stroke:#00f;stroke-opacity:1;stroke-dasharray:2.98883,2.98883;stroke-miterlimit:10" d="M 17.292531 64.417031 L 104.882375 42.518594 L 51.023 28.346719 L 41.468312 14.014687" transform="matrix(1,0,0,-1,9.102,113.585)"/></g></svg>

<?xml version="1.0" encoding="UTF-8"?>
<svg width="200.32" height="152.24" version="1.1" viewBox="0 0 150.24 114.18" xmlns="http://www.w3.org/2000/svg" xmlns:xlink="http://www.w3.org/1999/xlink">
<defs>
<symbol id="d" overflow="visible">
<path d="m2.2188-3.6562v-2.4375c0-0.34375 0.015625-0.40625 0.48438-0.40625h1.2344c0.96875 0 1.3125 0.84375 1.3125 1.375 0 0.64062-0.48438 1.4688-1.5938 1.4688zm2.3438 0.09375c0.96875-0.1875 1.6562-0.82812 1.6562-1.5625 0-0.85938-0.92188-1.6875-2.2188-1.6875h-3.6406v0.3125h0.23438c0.76562 0 0.79688 0.10938 0.79688 0.46875v5.25c0 0.35938-0.03125 0.46875-0.79688 0.46875h-0.23438v0.3125h3.9062c1.3281 0 2.2188-0.89062 2.2188-1.8281 0-0.85938-0.8125-1.6094-1.9219-1.7344zm-0.60938 3.25h-1.25c-0.46875 0-0.48438-0.0625-0.48438-0.39062v-2.7188h1.875c0.98438 0 1.4062 0.92188 1.4062 1.5938 0 0.70312-0.53125 1.5156-1.5469 1.5156z"/>
</symbol>
<symbol id="c" overflow="visible">
<path d="m3.4844-3.875-1.2812-0.29688c-0.625-0.15625-1-0.6875-1-1.2656 0-0.70312 0.53125-1.3125 1.3125-1.3125 1.6562 0 1.875 1.6406 1.9375 2.0781 0.015625 0.0625 0.015625 0.125 0.125 0.125 0.125 0 0.125-0.046875 0.125-0.23438v-2c0-0.17188 0-0.25-0.10938-0.25-0.0625 0-0.078125 0.015625-0.14062 0.14062l-0.35938 0.5625c-0.29688-0.29688-0.70312-0.70312-1.5938-0.70312-1.1094 0-1.9375 0.875-1.9375 1.9375 0 0.82812 0.53125 1.5625 1.2969 1.8281 0.10938 0.03125 0.625 0.15625 1.3281 0.32812 0.26562 0.0625 0.5625 0.14062 0.84375 0.5 0.20312 0.26562 0.3125 0.59375 0.3125 0.92188 0 0.70312-0.5 1.4219-1.3438 1.4219-0.28125 0-1.0469-0.046875-1.5781-0.53125-0.57812-0.54688-0.60938-1.1719-0.60938-1.5312-0.015625-0.10938-0.09375-0.10938-0.125-0.10938-0.125 0-0.125 0.078125-0.125 0.25v2c0 0.17188 0 0.23438 0.10938 0.23438 0.0625 0 0.078125-0.015625 0.14062-0.125 0-0.015625 0.03125-0.046875 0.35938-0.57812 0.3125 0.34375 0.95312 0.70312 1.8438 0.70312 1.1562 0 1.9531-0.96875 1.9531-2.0781 0-0.98438-0.65625-1.8125-1.4844-2.0156z"/>
</symbol>
<symbol id="b" overflow="visible">
<path d="m5.7969-2.2969c0 1.4062-0.96875 2.2031-1.9062 2.2031-0.46875 0-1.6406-0.25-1.6406-2.1406v-3.7969c0-0.35938 0.015625-0.46875 0.78125-0.46875h0.23438v-0.3125c-0.34375 0.03125-1.0781 0.03125-1.4688 0.03125-0.375 0-1.125 0-1.4688-0.03125v0.3125h0.23438c0.76562 0 0.79688 0.10938 0.79688 0.46875v3.7656c0 1.3906 1.1562 2.4844 2.5156 2.4844 1.1406 0 2.0312-0.92188 2.2031-2.0625 0.03125-0.20312 0.03125-0.29688 0.03125-0.6875v-3.1875c0-0.32812 0-0.78125 1.0312-0.78125v-0.3125c-0.35938 0.015625-0.84375 0.03125-1.1719 0.03125-0.35938 0-0.82812-0.015625-1.1875-0.03125v0.3125c1.0156 0 1.0156 0.46875 1.0156 0.73438z"/>
</symbol>
<symbol id="a" overflow="visible">
<path d="m1.3594-0.78125c0 0.35938-0.03125 0.46875-0.79688 0.46875h-0.23438v0.3125h5.75l0.42188-2.5781h-0.25c-0.25 1.5469-0.48438 2.2656-2.1875 2.2656h-1.3281c-0.46875 0-0.48438-0.0625-0.48438-0.39062v-2.6719h0.89062c0.96875 0 1.0781 0.32812 1.0781 1.1719h0.25v-2.6406h-0.25c0 0.85938-0.10938 1.1719-1.0781 1.1719h-0.89062v-2.4062c0-0.32812 0.015625-0.39062 0.48438-0.39062h1.2812c1.5312 0 1.7969 0.54688 1.9531 1.9375h0.25l-0.28125-2.25h-5.6094v0.3125h0.23438c0.76562 0 0.79688 0.10938 0.79688 0.46875z"/>
</symbol>
<clipPath id="f">
<path d="m0 112h151.43v2.1836h-151.43z"/>
</clipPath>
<clipPath id="e">
<path d="m34 88h29v26.184h-29z"/>
</clipPath>
</defs>
<g transform="translate(-.59766 -6.5458e-5)">
<path transform="matrix(1 0 0 -1 9.102 113.58)" d="m-4.375e-4 -9.375e-4v56.695h28.348v-56.695z" fill="#d1d1d1" stroke="#000" stroke-miterlimit="10" stroke-width=".3985"/>
<path transform="matrix(1 0 0 -1 9.102 113.58)" d="m104.88-9.375e-4v113.39h28.348v-113.39z" fill="#d1d1d1" stroke="#000" stroke-miterlimit="10" stroke-width=".3985"/>
<path transform="matrix(1 0 0 -1 9.102 113.58)" d="m51.023-9.375e-4v28.348h28.348v-28.348z" fill="#d1d1d1" stroke="#000" stroke-miterlimit="10" stroke-width=".3985"/>
<g clip-path="url(#f)">
<path transform="matrix(1 0 0 -1 9.102 113.58)" d="m-8.5043-9.375e-4h150.24" fill="none" stroke="#000" stroke-miterlimit="10" stroke-width="1.1955"/>
</g>
<path transform="matrix(1 0 0 -1 9.102 113.58)" d="m16.992 65.198c0 1.5547-1.2617 2.8164-2.8203 2.8164-1.5547 0-2.8164-1.2617-2.8164-2.8164 0-1.5586 1.2617-2.8203 2.8164-2.8203 1.5586 0 2.8203 1.2617 2.8203 2.8203z" fill="none" stroke="#000" stroke-miterlimit="10" stroke-width=".79701"/>
<g>
<use x="16.979" y="41.652" xlink:href="#d"/>
<use x="24.035999" y="41.652" xlink:href="#c"/>
</g>
<g clip-path="url(#e)">
<path transform="matrix(1 0 0 -1 9.102 113.58)" d="m42.503 11.339c0 1.5547-1.2617 2.8164-2.8164 2.8164-1.5586 0-2.8203-1.2617-2.8203-2.8164 0-1.5586 1.2617-2.8203 2.8203-2.8203 1.5547 0 2.8164 1.2617 2.8164 2.8203z" fill="none" stroke="#000" stroke-miterlimit="10" stroke-width=".79701"/>
</g>
<g>
<use x="41.660999" y="95.510002" xlink:href="#b"/>
<use x="49.132999" y="95.510002" xlink:href="#a"/>
</g>
<path transform="matrix(1 0 0 -1 9.102 113.58)" d="m16.933 63.542 11.414-6.8477 10.559-42.234" fill="none" stroke="#f00" stroke-dasharray="2.98883, 2.98883" stroke-miterlimit="10" stroke-width=".3985"/>
<path transform="matrix(1 0 0 -1 9.102 113.58)" d="m17.293 64.417 87.59-21.898-53.859-14.172-9.5547-14.332" fill="none" stroke="#00f" stroke-dasharray="2.98883, 2.98883" stroke-miterlimit="10" stroke-width=".3985"/>
</g>
</svg>
